icons/rocket-16.svg

<svg xmlns="http://www.w3.org/2000/svg" width="16" height="16" viewBox="0 0 16 16"><path d="M14.064 0h.186C15.216 0 16 .784 16 1.75v.186a8.752 8.752 0 01-2.564 6.186l-.458.459c-.314.314-.641.616-.979.904v3.207c0 .608-.315 1.172-.833 1.49l-2.774 1.707a.749.749 0 01-1.11-.418l-.954-3.102a1.214 1.214 0 01-.145-.125L3.754 9.816a1.218 1.218 0 01-.124-.145L.528 8.717a.749.749 0 01-.418-1.11l1.71-2.774A1.748 1.748 0 013.31 4h3.204c.288-.338.59-.665.904-.979l.459-.458A8.749 8.749 0 0114.064 0zM8.938 3.623h-.002l-.458.458c-.76.76-1.437 1.598-2.02 2.5l-1.5 2.317 2.143 2.143 2.317-1.5c.902-.583 1.74-1.26 2.499-2.02l.459-.458a7.25 7.25 0 002.123-5.127V1.75a.25.25 0 00-.25-.25h-.186a7.249 7.249 0 00-5.125 2.123zM3.56 14.56c-.732.732-2.334 1.045-3.005 1.148a.234.234 0 01-.201-.064.234.234 0 01-.064-.201c.103-.671.416-2.273 1.15-3.003a1.502 1.502 0 112.12 2.12zm6.94-3.935c-.088.06-.177.118-.266.175l-2.35 1.521.548 1.783 1.949-1.2a.25.25 0 00.119-.213zM3.678 8.116L5.2 5.766c.058-.09.117-.178.176-.266H3.309a.25.25 0 00-.213.119l-1.2 1.95zM12 5a1 1 0 11-2 0 1 1 0 012 0z"/></svg>

<svg xmlns="http://www.w3.org/2000/svg" width="16" height="16" viewBox="0 0 16 16">
  <defs/>
  <path d="M14.064,0 L14.25,0 C15.216,0 16,0.784 16,1.75 L16,1.936 C15.999,4.256 15.077,6.482 13.436,8.122 L12.978,8.581 C12.664,8.895 12.337,9.197 11.999,9.485 L11.999,12.692 C11.999,13.3 11.684,13.864 11.166,14.182 L8.392,15.889 C8.194,16.011 7.952,16.034 7.734,15.952 C7.517,15.87 7.35,15.693 7.282,15.471 L6.328,12.369 C6.277,12.332 6.229,12.29 6.183,12.244 L3.754,9.816 C3.709,9.771 3.667,9.722 3.63,9.671 L0.528,8.717 C0.306,8.649 0.129,8.482 0.047,8.265 C-0.035,8.047 -0.012,7.805 0.11,7.607 L1.82,4.833 C2.138,4.315 2.702,4 3.31,4 L6.514,4 C6.802,3.662 7.104,3.335 7.418,3.021 L7.877,2.563 C9.518,0.922 11.743,0 14.064,0 Z M8.938,3.623 L8.936,3.623 L8.478,4.081 C7.718,4.841 7.041,5.679 6.458,6.581 L4.958,8.898 L7.101,11.041 L9.418,9.541 C10.32,8.958 11.158,8.281 11.917,7.521 L12.376,7.063 C13.736,5.703 14.499,3.859 14.499,1.936 L14.499,1.75 C14.499,1.612 14.387,1.5 14.249,1.5 L14.063,1.5 C12.141,1.5 10.297,2.264 8.938,3.623 Z M3.56,14.56 C2.828,15.292 1.226,15.605 0.555,15.708 C0.482,15.72 0.407,15.696 0.354,15.644 C0.302,15.591 0.278,15.516 0.29,15.443 C0.393,14.772 0.706,13.17 1.44,12.44 C1.814,12.039 2.377,11.874 2.909,12.009 C3.44,12.145 3.855,12.56 3.991,13.091 C4.126,13.623 3.961,14.186 3.56,14.56 Z M10.5,10.625 C10.412,10.685 10.323,10.743 10.234,10.8 L7.884,12.321 L8.432,14.104 L10.381,12.904 C10.455,12.858 10.5,12.778 10.5,12.691 Z M3.678,8.116 L5.2,5.766 C5.258,5.676 5.317,5.588 5.376,5.5 L3.309,5.5 C3.222,5.5 3.142,5.545 3.096,5.619 L1.896,7.569 Z M12,5 C12,5.552 11.552,6 11,6 C10.448,6 10,5.552 10,5 C10,4.448 10.448,4 11,4 C11.552,4 12,4.448 12,5 Z"/>
</svg>
